icons/svg/shields/h_generator_nuclear_shield.svg

<?xml version="1.0" encoding="UTF-8" standalone="no"?>
<!-- Created with Inkscape (http://www.inkscape.org/) -->

<svg
   xmlns:dc="http://purl.org/dc/elements/1.1/"
   xmlns:cc="http://creativecommons.org/ns#"
   xmlns:rdf="http://www.w3.org/1999/02/22-rdf-syntax-ns#"
   xmlns:svg="http://www.w3.org/2000/svg"
   xmlns="http://www.w3.org/2000/svg"
   xmlns:sodipodi="http://sodipodi.sourceforge.net/DTD/sodipodi-0.dtd"
   xmlns:inkscape="http://www.inkscape.org/namespaces/inkscape"
   version="1.0"
   width="16"
   height="16"
   id="svg2"
   sodipodi:version="0.32"
   inkscape:version="0.91 r13725"
   sodipodi:docname="h_generator_nuclear_shield.svg"
   inkscape:output_extension="org.inkscape.output.svg.inkscape">
  <metadata
     id="metadata10">
    <rdf:RDF>
      <cc:Work
         rdf:about="">
        <dc:format>image/svg+xml</dc:format>
        <dc:type
           rdf:resource="http://purl.org/dc/dcmitype/StillImage" />
        <cc:license
           rdf:resource="http://web.resource.org/cc/PublicDomain" />
        <dc:language>en</dc:language>
        <dc:title />
      </cc:Work>
    </rdf:RDF>
  </metadata>
  <sodipodi:namedview
     inkscape:window-height="1006"
     inkscape:window-width="1920"
     inkscape:pageshadow="2"
     inkscape:pageopacity="0.0"
     guidetolerance="10.0"
     gridtolerance="10.0"
     objecttolerance="10.0"
     borderopacity="1.0"
     bordercolor="#666666"
     pagecolor="#ffffff"
     id="base"
     showgrid="false"
     inkscape:zoom="32"
     inkscape:cx="9.2821286"
     inkscape:cy="9.9487299"
     inkscape:window-x="1920"
     inkscape:window-y="0"
     inkscape:current-layer="svg2"
     inkscape:window-maximized="1"
     showguides="true"
     inkscape:guide-bbox="true" />
  <defs
     id="defs4">
    <inkscape:perspective
       sodipodi:type="inkscape:persp3d"
       inkscape:vp_x="0 : 290 : 1"
       inkscape:vp_y="0 : 1000 : 0"
       inkscape:vp_z="580 : 290 : 1"
       inkscape:persp3d-origin="290 : 193.33333 : 1"
       id="perspective12" />
    <style
       type="text/css"
       id="style6">
   
    .fil0 {fill:#EF7900}
   
  </style>
    <inkscape:perspective
       id="perspective6807"
       inkscape:persp3d-origin="29.116032 : 19.410688 : 1"
       inkscape:vp_z="58.232063 : 29.116032 : 1"
       inkscape:vp_y="0 : 1000 : 0"
       inkscape:vp_x="0 : 29.116032 : 1"
       sodipodi:type="inkscape:persp3d" />
    <inkscape:perspective
       id="perspective6954"
       inkscape:persp3d-origin="290 : 193.33333 : 1"
       inkscape:vp_z="580 : 290 : 1"
       inkscape:vp_y="0 : 1000 : 0"
       inkscape:vp_x="0 : 290 : 1"
       sodipodi:type="inkscape:persp3d" />
    <inkscape:perspective
       id="perspective2541"
       inkscape:persp3d-origin="240 : 160 : 1"
       inkscape:vp_z="480 : 240 : 1"
       inkscape:vp_y="0 : 1000 : 0"
       inkscape:vp_x="0 : 240 : 1"
       sodipodi:type="inkscape:persp3d" />
    <inkscape:perspective
       id="perspective2750"
       inkscape:persp3d-origin="215 : 143.33333 : 1"
       inkscape:vp_z="430 : 215 : 1"
       inkscape:vp_y="0 : 1000 : 0"
       inkscape:vp_x="0 : 215 : 1"
       sodipodi:type="inkscape:persp3d" />
    <inkscape:perspective
       id="perspective3730"
       inkscape:persp3d-origin="88.929146 : 101.19778 : 1"
       inkscape:vp_z="177.85829 : 151.79668 : 1"
       inkscape:vp_y="0 : 1000 : 0"
       inkscape:vp_x="0 : 151.79668 : 1"
       sodipodi:type="inkscape:persp3d" />
  </defs>
  <path
     style="color:#000000;clip-rule:nonzero;display:inline;overflow:visible;visibility:visible;opacity:0.81199999;isolation:auto;mix-blend-mode:normal;color-interpolation:sRGB;color-interpolation-filters:linearRGB;solid-color:#000000;solid-opacity:1;fill:#ebe7e4;fill-opacity:1;fill-rule:nonzero;stroke:none;stroke-width:0.78325456;stroke-linecap:butt;stroke-linejoin:miter;stroke-miterlimit:4;stroke-dasharray:none;stroke-dashoffset:0;stroke-opacity:1;marker:none;color-rendering:auto;image-rendering:auto;shape-rendering:auto;text-rendering:auto;enable-background:accumulate"
     d="m 9.1096561,1.1446312 c -1.398827,0 -2.2041636,0.8901353 -2.67875,1.553675 -0.9792316,0.063735 -1.7680873,0.4627417 -2.2233625,0.9375625 -0.5305571,0.5533346 -0.75005,1.1518625 -0.75005,1.1518625 -0.053894,0.1446159 -0.063355,0.3054504 -0.026787,0.4553875 -1.54e-4,0.00893 -1.54e-4,0.017859 0,0.026788 C 3.2788686,5.4145257 3.1896276,5.6227549 3.1896186,5.8324437 l 0,2.410875 c -0.051804,0.1225064 -0.4764877,1.1440547 -0.96435,2.3037253 -0.2580195,0.613323 -0.5291514,1.221323 -0.7232625,1.687612 -0.097056,0.233145 -0.1832861,0.44757 -0.2410875,0.589325 -0.028901,0.07088 -0.035942,0.115709 -0.053575,0.160725 -0.00882,0.02251 -0.018745,0.03143 -0.026787,0.05358 -0.00402,0.01107 -0.020058,0.03233 -0.026787,0.05358 -0.00337,0.01062 0.00636,0.02838 0,0.05358 -0.00318,0.01259 -0.022126,0.02761 -0.026787,0.05358 -0.00466,0.02596 0,0.133735 0,0.133938 0,0.374817 0.2140085,0.620504 0.375025,0.75005 0.1610164,0.129546 0.3208859,0.204406 0.482175,0.267875 0.3225781,0.126938 0.6997598,0.218151 1.1518625,0.294662 0.9042052,0.153022 2.0966413,0.241088 3.4288,0.241088 1.3321586,0 2.5245947,-0.08807 3.4288,-0.241088 0.4521024,-0.07651 0.8292844,-0.167724 1.1518624,-0.294662 0.161289,-0.06347 0.321159,-0.138329 0.482175,-0.267875 0.161017,-0.129546 0.375025,-0.375233 0.375025,-0.75005 0,-2.03e-4 0.0046,-0.107977 0,-0.133938 -0.0046,-0.02596 -0.02361,-0.04098 -0.02679,-0.05358 -0.0063,-0.02519 0.0033,-0.04295 0,-0.05358 -0.0068,-0.02124 -0.02277,-0.0425 -0.02679,-0.05358 -0.0081,-0.02215 -0.01797,-0.03106 -0.02679,-0.05358 -0.01763,-0.04502 -0.02467,-0.08985 -0.05358,-0.160725 -0.0022,-0.0055 0.0023,-0.0211 0,-0.02679 0.09168,-0.04578 0.174142,-0.109927 0.241087,-0.187513 l 2.7859,-3.5359498 C 15.257212,8.6169919 14.862083,7.8095519 14.279644,7.8147187 l -0.187513,0 0.53575,-0.8572 c 0.283947,-0.4699899 -0.120593,-1.181979 -0.669687,-1.17865 l -0.241088,0 c 0.122047,-0.1092365 0.335355,-0.1500139 0.4286,-0.267875 0.652717,-0.8250271 0.776838,-1.767975 0.776838,-1.767975 0.03872,-0.2401186 -0.04338,-0.4966574 -0.2143,-0.6696875 0.384761,-0.3032477 0.355558,-0.9895474 -0.05358,-1.2590125 0,0 -1.824247,-1.10840128 -3.910975,-0.1875125 -0.46562,-0.2231754 -0.9545844,-0.482175 -1.6340379,-0.482175 z m 4.3395749,2.143 c 0,0 -0.236895,0.4635178 -0.616112,0.7768375 -0.374329,0.3092798 -0.726093,0.515978 -1.553675,0.053575 -0.0075,-0.00453 -0.01933,0.00449 -0.02679,0 -0.182434,-0.1098798 -0.416124,-0.083414 -0.616112,-0.160725 0.227776,0.037179 0.470825,-0.033711 0.6429,-0.1875125 0,0 0.816836,-0.4846426 2.169787,-0.482175 z m -4.5806624,0.267875 c 0.7064962,-0.1682133 1.4733124,0.267875 1.4733124,0.267875 0.06534,0.046489 0.137909,0.082778 0.2143,0.10715 C 10.145962,3.783866 9.7498499,3.5778522 9.2971686,3.6358687 c -0.5132089,0.065774 -0.9863658,0.3653844 -1.39295,0.7768375 0,0 0.2941669,-0.6976324 0.96435,-0.8572 z M 6.2701811,4.7609437 c 0.4016628,-0.03162 0.6429,0.080362 0.6429,0.080362 0.1974838,0.075389 0.4259169,0.065457 0.6161125,-0.026788 -0.025545,0.038874 -0.056363,0.066534 -0.080363,0.10715 -0.021958,0.042857 -0.039919,0.08776 -0.053575,0.1339375 l -1.9554875,0 C 5.7458119,4.8807619 6.0365528,4.7793352 6.2701811,4.7609437 Z m 3.6698875,1.0715 c 0.1567594,0.053254 0.2781744,0.040667 0.4553874,0.1339375 l 0,-0.026788 c 0.53277,0.3002888 1.02653,0.4297052 1.5001,0.482175 l -1.339375,2.67875 c -0.05741,0.1157244 -0.08531,0.2459385 -0.08036,0.375025 C 10.263492,8.9724562 9.967937,8.3092221 9.9400686,8.2433187 Z m 0.6964754,4.0717 c 0.140755,0.1945833 0.375991,0.3173153 0.616112,0.3214503 l 0.267875,0 -0.401812,0.8572 c -0.07909,-0.188353 -0.133237,-0.343059 -0.2143,-0.53575 -0.136054,-0.323406 -0.141298,-0.342684 -0.267875,-0.6429003 z"
     id="path4222"
     inkscape:connector-curvature="0"
     sodipodi:nodetypes="scscccccsssscccssssssscssccccccccccccccsccccscscscccsccscsscccccsccccccccccccsc" />
</svg>

<svg width="16" height="16" viewBox="0 0 16 16" fill="none" xmlns="http://www.w3.org/2000/svg">
<path opacity="0.812" d="M9.10965 1.14465C7.71083 1.14465 6.90549 2.03479 6.4309 2.69833C5.45167 2.76206 4.66282 3.16107 4.20754 3.63589C3.67698 4.18923 3.45749 4.78775 3.45749 4.78775C3.4036 4.93237 3.39414 5.0932 3.4307 5.24314C3.43055 5.25207 3.43055 5.261 3.4307 5.26993C3.27887 5.41455 3.18962 5.62278 3.18962 5.83247V8.24334C3.13781 8.36585 2.71313 9.3874 2.22527 10.5471C1.96725 11.1604 1.69611 11.7684 1.502 12.2347C1.40495 12.4678 1.31872 12.6822 1.26092 12.824C1.23201 12.8949 1.22497 12.9397 1.20734 12.9847C1.19852 13.0072 1.1886 13.0162 1.18055 13.0383C1.17653 13.0494 1.1605 13.0706 1.15377 13.0919C1.1504 13.1025 1.16013 13.1203 1.15377 13.1455C1.15059 13.1581 1.13164 13.1731 1.12698 13.199C1.12232 13.225 1.12698 13.3328 1.12698 13.333C1.12698 13.7078 1.34099 13.9535 1.502 14.083C1.66302 14.2126 1.82289 14.2874 1.98418 14.3509C2.30676 14.4778 2.68394 14.5691 3.13604 14.6456C4.04025 14.7986 5.23268 14.8867 6.56484 14.8867C7.897 14.8867 9.08944 14.7986 9.99364 14.6456C10.4457 14.5691 10.8229 14.4778 11.1455 14.3509C11.3068 14.2874 11.4667 14.2126 11.6277 14.083C11.7887 13.9535 12.0027 13.7078 12.0027 13.333C12.0027 13.3328 12.0073 13.225 12.0027 13.199C11.9981 13.1731 11.9791 13.1581 11.9759 13.1455C11.9696 13.1203 11.9792 13.1025 11.9759 13.0919C11.9691 13.0706 11.9531 13.0494 11.9491 13.0383C11.941 13.0162 11.9312 13.0072 11.9223 12.9847C11.9047 12.9397 11.8977 12.8949 11.8688 12.824C11.8666 12.8185 11.8711 12.8029 11.8688 12.7972C11.9604 12.7514 12.0429 12.6873 12.1098 12.6097L14.8957 9.07375C15.2572 8.61701 14.8621 7.80957 14.2796 7.81474H14.0921L14.6279 6.95754C14.9118 6.48755 14.5073 5.77556 13.9582 5.77889H13.7171C13.8392 5.66965 14.0525 5.62888 14.1457 5.51102C14.7984 4.68599 14.9225 3.74304 14.9225 3.74304C14.9613 3.50292 14.8792 3.24638 14.7082 3.07335C15.093 2.77011 15.0638 2.08381 14.6547 1.81434C14.6547 1.81434 12.8304 0.70594 10.7437 1.62683C10.2781 1.40365 9.7891 1.14465 9.10965 1.14465H9.10965ZM13.4492 3.28765C13.4492 3.28765 13.2123 3.75117 12.8331 4.06449C12.4588 4.37377 12.107 4.58047 11.2794 4.11807C11.2719 4.11354 11.2601 4.12256 11.2527 4.11807C11.0702 4.00819 10.8365 4.03465 10.6365 3.95734C10.8643 3.99452 11.1074 3.92363 11.2794 3.76983C11.2794 3.76983 12.0963 3.28519 13.4492 3.28765H13.4492ZM8.86857 3.55553C9.57506 3.38732 10.3419 3.8234 10.3419 3.8234C10.4072 3.86989 10.4798 3.90618 10.5562 3.93055C10.146 3.78389 9.74985 3.57787 9.29717 3.63589C8.78396 3.70166 8.3108 4.00128 7.90422 4.41273C7.90422 4.41273 8.19838 3.7151 8.86857 3.55553V3.55553ZM6.27018 4.76097C6.67184 4.72935 6.91308 4.84133 6.91308 4.84133C7.11056 4.91672 7.33899 4.90678 7.52919 4.81454C7.50365 4.85341 7.47283 4.88107 7.44883 4.92169C7.42687 4.96455 7.40891 5.00945 7.39525 5.05563H5.43977C5.74581 4.88078 6.03655 4.77936 6.27018 4.76097ZM9.94007 5.83247C10.0968 5.88572 10.2182 5.87313 10.3955 5.9664V5.93962C10.9282 6.2399 11.422 6.36932 11.8956 6.42179L10.5562 9.10054C10.4988 9.21626 10.4709 9.34648 10.4758 9.47556C10.2635 8.97248 9.96793 8.30924 9.94007 8.24334V5.83247ZM10.6365 9.90417C10.7773 10.0987 11.0125 10.2215 11.2527 10.2256H11.5205L11.1187 11.0828C11.0396 10.8945 10.9855 10.7398 10.9044 10.5471C10.7684 10.2237 10.7631 10.2044 10.6365 9.90417V9.90417Z" fill="#EBE7E4"/>
</svg>
